alura/assets/api/cursos/c-mas-basico.svg

<svg xmlns="http://www.w3.org/2000/svg" fill="none" viewBox="0 0 286 274"><path fill="#F1F1F1" d="M142.777 0C103.163 0 69.325 13.205 42.09 40.44S0 99.036 0 137c0 37.964 14.03 70.151 42.09 96.56C70.151 259.97 103.163 274 142.777 274c38.789 0 72.627-13.205 100.687-40.44 28.06-26.409 42.09-59.421 42.09-96.56s-14.03-70.151-42.09-96.56C215.404 13.205 181.566 0 142.777 0z"/><path fill="#202730" d="M142.777 0C103.163 0 69.325 13.205 42.09 40.44S0 99.036 0 137c0 37.964 14.03 70.151 42.09 96.56C70.151 259.97 103.163 274 142.777 274c38.789 0 72.627-13.205 100.687-40.44 28.06-26.409 42.09-59.421 42.09-96.56s-14.03-70.151-42.09-96.56C215.404 13.205 181.566 0 142.777 0z"/><path fill="#fff" d="M81.705 82.53h121.319c6.603 0 12.38 5.777 12.38 12.38 0 6.602-5.777 12.379-12.38 12.379H81.705c-6.602 0-12.38-5.777-12.38-12.379 0-6.603 4.952-12.38 12.38-12.38zm0 41.265h43.741c6.602 0 12.379 5.777 12.379 12.38 0 6.602-5.777 12.379-12.379 12.379H81.705c-6.602 0-12.38-5.777-12.38-12.379 0-6.603 4.952-12.38 12.38-12.38z"/><path fill="#1BBC9B" d="M159.283 123.795h43.741c6.602 0 12.379 5.777 12.379 12.38 0 6.602-5.777 12.379-12.379 12.379h-43.741c-6.603 0-12.38-5.777-12.38-12.379 0-6.603 5.777-12.38 12.38-12.38z"/><path fill="#fff" d="M81.705 165.06h23.934c6.602 0 12.379 5.777 12.379 12.38 0 6.602-5.777 12.379-12.379 12.379H81.705c-6.602 0-12.38-5.777-12.38-12.379 0-6.603 4.952-12.38 12.38-12.38z"/><path fill="#1BBC9B" d="M139.476 165.06h62.723c6.602 0 12.38 5.777 12.38 12.38 0 6.602-5.778 12.379-12.38 12.379h-62.723c-6.602 0-12.379-5.777-12.379-12.379 0-6.603 5.777-12.38 12.379-12.38z"/></svg>

<svg width="286" height="274" viewBox="0 0 286 274" fill="none" xmlns="http://www.w3.org/2000/svg">
<path d="M142.777 0C103.163 0 69.325 13.205 42.09 40.44C14.855 67.675 0 99.036 0 137C0 174.964 14.03 207.151 42.09 233.56C70.151 259.97 103.163 274 142.777 274C181.566 274 215.404 260.795 243.464 233.56C271.524 207.151 285.554 174.139 285.554 137C285.554 99.861 271.524 66.849 243.464 40.44C215.404 13.205 181.566 0 142.777 0Z" fill="#F1F1F1"/>
<path d="M142.777 0C103.163 0 69.325 13.205 42.09 40.44C14.855 67.675 0 99.036 0 137C0 174.964 14.03 207.151 42.09 233.56C70.151 259.97 103.163 274 142.777 274C181.566 274 215.404 260.795 243.464 233.56C271.524 207.151 285.554 174.139 285.554 137C285.554 99.861 271.524 66.849 243.464 40.44C215.404 13.205 181.566 0 142.777 0Z" fill="#202730"/>
<path d="M81.705 82.53H203.024C209.627 82.53 215.404 88.307 215.404 94.91C215.404 101.512 209.627 107.289 203.024 107.289H81.705C75.103 107.289 69.325 101.512 69.325 94.91C69.325 88.307 74.277 82.53 81.705 82.53Z" fill="white"/>
<path d="M81.705 123.795H125.446C132.048 123.795 137.825 129.572 137.825 136.175C137.825 142.777 132.048 148.554 125.446 148.554H81.705C75.103 148.554 69.325 142.777 69.325 136.175C69.325 129.572 74.277 123.795 81.705 123.795Z" fill="white"/>
<path d="M159.283 123.795H203.024C209.626 123.795 215.403 129.572 215.403 136.175C215.403 142.777 209.626 148.554 203.024 148.554H159.283C152.68 148.554 146.903 142.777 146.903 136.175C146.903 129.572 152.68 123.795 159.283 123.795Z" fill="#1BBC9B"/>
<path d="M81.705 165.06H105.639C112.241 165.06 118.018 170.837 118.018 177.44C118.018 184.042 112.241 189.819 105.639 189.819H81.705C75.103 189.819 69.325 184.042 69.325 177.44C69.325 170.837 74.277 165.06 81.705 165.06Z" fill="white"/>
<path d="M139.476 165.06H202.199C208.801 165.06 214.579 170.837 214.579 177.44C214.579 184.042 208.801 189.819 202.199 189.819H139.476C132.874 189.819 127.097 184.042 127.097 177.44C127.097 170.837 132.874 165.06 139.476 165.06Z" fill="#1BBC9B"/>
</svg>
